!!!!SEGMENT: pl-kk--kk-i-30--004_anonim--missa-sine-credo-agnus-dei.krn
!!!cenid: 17xx:2230
!!!COM: Anonim
!!!COM-rismid: pe30004985
!!!CDT:
!!!CNT:
!!!OTL: Missa sine Credo – Agnus Dei
!!!PDT:
!!!AGN: Sacred; Mass
!!!SMS-siglum: PL-Kk
!!!SMS-shelfmark: Kk.I.30
!!!SMS-shelfwork: 001-004 M
!!!SMS-variant:
!!!SMS-altvar:
!!!NIFC-rismid: 1001156436
!!!URL-scan: http://repozytorium.nifc.pl/skany/pl-kk-nut--i-30
!!!ONB-nifc: UWAGA: części Mszy: 1. Kyrie, 2. Et in terra, 3. Sanctus, 4. Agnus Dei.
**kern	**text	**kern	**text	**kern	**text	**kern	**text
*part4	*part4	*part3	*part3	*part2	*part2	*part1	*part1
*staff4	*staff4	*staff3	*staff3	*staff2	*staff2	*staff1	*staff1
*I"Baſso.	*	*I"Tenore	*	*I"Alto.	*	*I"Canto.	*
*I'B	*	*I'T	*	*I'A	*	*I'S	*
*clefF4	*	*clefC4	*	*clefC3	*	*clefC1	*
*k[f#]	*	*k[f#]	*	*k[f#]	*	*k[f#]	*
*M2/1	*	*M2/1	*	*M2/1	*	*M2/1	*
*met(C|)	*	*met(C|)	*	*met(C|)	*	*met(C|)	*
=1	=1	=1	=1	=1	=1	=1	=1
!	!	!LO:TX:t=P:problem:znaki [f# F#]	!	!	!	!	!
!LO:TX:b:t=Agnus Dei.	!	!LO:TX:t=P:problem:kreska pseudotaktowa	!	!	!	!LO:TX:b:t=Agnus.	!
00r	.	1r	.	2r	.	00r	.
.	.	.	.	1d	A-	.	.
.	.	1G	A-	.	.	.	.
.	.	.	.	1e\	-gnus	.	.
=2-	=2-	=2-	=2-	=2-	=2-	=2-	=2-
!	!	!LO:TX:t=P:problem:kreska pseudotaktowa	!	!	!	!	!
.	.	1A,	-gnus	.	.	.	.
.	.	.	.	1f#X	De-	.	.
!	!	!LO:TX:t=P:problem:kreska pseudotaktowa	!	!	!	!	!
.	.	1B,	De-	.	.	.	.
.	.	.	.	4g\	-i	.	.
!	!	!	!	!LO:TX:t=P:problem:kreska pseudotaktowa	!	!	!
.	.	.	.	4f#\	qui	.	.
=3-	=3-	=3-	=3-	=3-	=3-	=3-	=3-
*	*	*2\right	*	*	*	*	*
!LO:TX:t=P:problem:kreska pseudotaktowa	!	!	!	!	!	!LO:TX:t=P:problem:kreska pseudotaktowa	!
1r	.	2.c\	-i	4e\	tol-	0r	.
.	.	.	.	4f#\	.	.	.
.	.	.	.	1g	.	.	.
.	.	4B\	.	.	.	.	.
2r	.	1A	qui	.	.	.	.
*2\right	*	*	*	*2\right	*	*	*
!LO:TX:t=P:problem:kreska pseudotaktowa	!	!	!	!	!	!	!
2D\	Qui	.	.	2f#\	.	.	.
=4-	=4-	=4-	=4-	=4-	=4-	=4-	=4-
!	!	!	!	!LO:TX:t=P:problem:kreska pseudotaktowa	!	!	!
2G\	tol-	1B	tol-	1g	-lis	2r	.
!	!	!	!	!	!	!LO:TX:t=P:problem:kreska pseudotaktowa	!
*	*	*	*	*	*	*2\right	*
!	!	!	!	!	!	!	!
4G\	-lis	.	.	.	.	2g/	Qui
!LO:TX:t=P:problem:kreska pseudotaktowa	!	!	!	!	!	!	!
4G\	pec-	.	.	.	.	.	.
!	!	!LO:TX:t=P:problem:kreska pseudotaktowa	!	!	!	!	!
2F#\	-ca-	1A,	-lis	0r	.	2dd\	tol-
4F#,<\	-ta	.	.	.	.	4dd\	-lis
*	*ij	*	*	*	*	*	*
!LO:TX:t=P:problem:kreska pseudotaktowa	!	!	!	!	!	!LO:TX:t=P:problem:kreska pseudotaktowa	!
4F#\	pec-	.	.	.	.	4cc\	pec-
=5-	=5-	=5-	=5-	=5-	=5-	=5-	=5-
2G\	-ca-	0r	.	.	.	4b\	-ca-
.	.	.	.	.	.	4cc#X\	-ta
2F#,\	-ta	.	.	.	.	1dd	mun-
*	*Xij	*	*	*	*	*	*
!LO:TX:t=P:problem:kreska pseudotaktowa	!	!	!	!	!	!	!
1E	mun-	.	.	2r	.	.	.
.	.	.	.	1g\	mi-	2cc#X\	.
=6-	=6-	=6-	=6-	=6-	=6-	=6-	=6-
!LO:TX:t=P:problem:kreska pseudotaktowa	!	!	!	!	!	!LO:TX:t=P:problem:kreska pseudotaktowa	!
1D,	-di	2r	.	.	.	1dd	-di
.	.	1A	mi-	2f#\	-ſe-	.	.
1GG	mi-	.	.	1b	-re-	2r	.
.	.	2G/	-ſe-	.	.	1g\	mi-
=7-	=7-	=7-	=7-	=7-	=7-	=7-	=7-
!	!	!	!	!LO:TX:t=P:problem:kreska pseudotaktowa	!	!	!
1AA	-ſe-	1c	-re-	1a	-re	.	.
!	!	!	!	!	!	!LO:TX:t=P:problem:kreska pseudotaktowa	!
.	.	.	.	.	.	2f#/	-ſe-
*	*	*	*	*	*ij	*	*
2BB/	-re-	2B,\	-re	2g\	mi-	1b	-re-
*	*	*	*ij	*	*	*	*
2C#X/	-re	4e\	mi-	2g\	-ſe-	.	.
!	!	!LO:TX:t=P:problem:kreska pseudotaktowa	!	!	!	!	!
.	.	4g\	-ſe-	.	.	.	.
=8-	=8-	=8-	=8-	=8-	=8-	=8-	=8-
0D	no-	2d\	-re-	4f#\	-re-	(2a\	-re
.	.	.	.	4f#,<\	-re	.	.
*	*	*	*	*	*Xij	*	*
!	!	!	!	!	!	!LO:TX:t=P:problem:kreska pseudotaktowa	!
.	.	2d,\	-re	1g	no-	2b\)	.
*	*	*	*Xij	*	*	*	*
.	.	1d	no-	.	.	1a	no-
.	.	.	.	2f#\	.	.	.
=9-	=9-	=9-	=9-	=9-	=9-	=9-	=9-
!LO:SIC:v:t=custos G	!	!	!	!	!	!	!
!LO:TX:t=P:problem:kreska pseudotaktowa	!	!	!	!	!	!	!
0GG;	-bis.	0d;	-bis.	0g;	-bis.	0b;	-bis.
!	!	!	!	!LO:LB:g=original	!	!LO:LB:g=original	!
=10||	=10||	=10||	=10||	=10||	=10||	=10||	=10||
!LO:TX:t=P:problem:kreska pseudotaktowa	!	!	!	!	!	!LO:TX:t=P:problem:kreska pseudotaktowa	!
0r	.	0r	.	2d\	A-	1r	.
!	!	!	!	!LO:TX:t=P:problem:kreska pseudotaktowa	!	!	!
.	.	.	.	2d\	-gnus	.	.
.	.	.	.	1g	De-	2g/	A-
!	!	!	!	!	!	!LO:TX:t=P:problem:kreska pseudotaktowa	!
.	.	.	.	.	.	2g/	-gnus
=11-	=11-	=11-	=11-	=11-	=11-	=11-	=11-
!	!	!LO:TX:t=P:problem:kreska pseudotaktowa	!	!	!	!	!
2D\	A-	1r	.	2f#,\	-i	1dd	De-
2D\	-gnus	.	.	2f#\	qui	.	.
!LO:TX:t=P:problem:kreska pseudotaktowa	!	!	!	!	!	!LO:TX:t=P:problem:kreska pseudotaktowa	!
1G	De-	2G/	A-	1g	tol-	1b	-i
.	.	2G/	-gnus	.	.	.	.
=12-	=12-	=12-	=12-	=12-	=12-	=12-	=12-
!	!	!	!	!LO:TX:t=P:problem:kreska pseudotaktowa	!	!	!
2F#,<\	-i	1d	De-	1a,	-lis	2r	.
2F#\	Qui	.	.	.	.	2a\	Qui
!LO:TX:t=P:problem:kreska pseudotaktowa	!	!	!	!	!	!LO:TX:t=P:problem:kreska pseudotaktowa	!
1B	tol-	2B,\	-i	1f#	pec-	1dd	tol-
!	!	!LO:TX:t=P:problem:kreska pseudotaktowa	!	!	!	!	!
.	.	2B\	qui	.	.	.	.
=13-	=13-	=13-	=13-	=13-	=13-	=13-	=13-
2E,<\	-lis	1B	tol-	1g	-ca-	2b\	-lis
2E\	pec-	.	.	.	.	2b\	pec-
!	!	!	!	!LO:TX:t=P:problem:kreska pseudotaktowa	!	!LO:TX:t=P:problem:kreska pseudotaktowa	!
2.A\	-ca-	2c#X,\	-lis	1e	-ta	[>1a	-ca-
.	.	2c#\	pec-	.	.	.	.
!LO:TX:t=P:problem:kreska pseudotaktowa	!	!	!	!	!	!	!
4G\	.	.	.	.	.	.	.
=14-	=14-	=14-	=14-	=14-	=14-	=14-	=14-
!	!	!LO:TX:t=P:problem:kreska pseudotaktowa	!	!	!	!	!
2F#\	-ta	[<1d	-ca-	1f#	mun-	2a]	.
2D/	.	.	.	.	.	2a\	-ta
1A	mun-	4d]	.	1e	.	1a	mun-
.	.	4d\	-ta	.	.	.	.
.	.	2c#X\	mun-	.	.	.	.
=15-	=15-	=15-	=15-	=15-	=15-	=15-	=15-
!LO:TX:t=P:problem:kreska pseudotaktowa	!	!LO:TX:t=P:problem:kreska pseudotaktowa	!	!LO:TX:t=P:problem:kreska pseudotaktowa	!	!LO:TX:t=P:problem:kreska pseudotaktowa	!
1D,<	-di	0d,	-di	1f#,	-di	1a,	-di
2BB/	mi-	.	.	1g	mi-	2r	.
2G\	-ſe-	.	.	.	.	1g\	mi-
=16-	=16-	=16-	=16-	=16-	=16-	=16-	=16-
!	!	!	!	!LO:TX:t=P:problem:kreska pseudotaktowa	!	!	!
2C/	-re-	2cn\	mi-	1e	-ſe-	.	.
!LO:TX:t=P:problem:kreska pseudotaktowa	!	!	!	!	!	!	!
2A,\	-re	2c\	-ſe-	.	.	1a	-ſe-
*	*ij	*	*	*	*	*	*
2D\	mi-	1d	-re-	1f#	-re-	.	.
2B\	-ſe-	.	.	.	.	1b\	-re-
=17-	=17-	=17-	=17-	=17-	=17-	=17-	=17-
!	!	!	!	!LO:TX:t=P:problem:kreska pseudotaktowa	!	!	!
2E\	-re-	1e	.	1g	-re	.	.
!LO:TX:t=P:problem:kreska pseudotaktowa	!	!	!	!	!	!	!
2c\	-re	.	.	.	.	1cc	-re
*	*Xij	*	*	*	*	*	*
!LO:LB:g=original	!	!	!	!	!	!	!
2F#\	no-	2A,/	-re	2a\	no-	.	.
!	!	!	!	!LO:TX:t=P:problem:kreska pseudotaktowa	!	!	!
!	!	!	!	!LO:SIC:v:t=custos f	!	!LO:TX:t=P:problem:kreska pseudotaktowa	!
2G\	.	4B/	mi-	2g\	.	2b\	.
!	!	!LO:TX:t=P:problem:kreska pseudotaktowa	!	!LO:LB:g=original	!	!	!
.	.	4G/	-ſe-	.	.	.	.
!	!	!LO:LB:g=original	!	!	!	!	!
=18-	=18-	=18-	=18-	=18-	=18-	=18-	=18-
0D;	.	2A\	-re-	2f#\	.	2a\	no-
!	!	!LO:TX:t=P:problem:kreska pseudotaktowa	!	!	!	!	!
.	.	2d\	-re	1g	.	2b\	.
.	.	1d	no-	.	.	1a	.
.	.	.	.	2f#\	.	.	.
=19-	=19-	=19-	=19-	=19-	=19-	=19-	=19-
!	!	!LO:TX:b:t=Vertat(ur)	!	!LO:SIC:v:t=custos d	!	!	!
!	!	!LO:SIC:v:t=custos G	!	!LO:TX:b:t=Vertat(ur) Agnus 3tium	!	!LO:TX:b:t=Vertat(ur)	!
0GG;	-bis.	0d;<	-bis.	0g;<	-bis.	0b;	-bis.
!	!	!LO:PB:g=original	!	!LO:PB:g=original	!	!LO:PB:g=original	!
=20||	=20||	=20||	=20||	=20||	=20||	=20||	=20||
*M2/1	*	*M2/1	*	*M2/1	*	*M2/1	*
*met(C|)	*	*met(C|)	*	*met(C|)	*	*met(C|)	*
!	!	!	!	!	!	!LO:TX:b:t=Agnus Dei.	!
!LO:TX:b:t=Agn(us)	!	!LO:TX:t=P:problem:kreska pseudotaktowa	!	!	!	!LO:TX:a:t=3tium.	!
00r	.	1r	.	2r	.	00r	.
!	!	!	!	!LO:TX:t=P:problem:kreska pseudotaktowa	!	!	!
.	.	.	.	[2d\	A-	.	.
.	.	1G	A-	2d]	.	.	.
.	.	.	.	1e\	-gnus	.	.
=21-	=21-	=21-	=21-	=21-	=21-	=21-	=21-
*	*	*lig	*	*	*	*	*
.	.	1A	-gnus	.	.	.	.
.	.	.	.	1f#	De-	.	.
*	*	*	*	*	*	*	*
!	!	!LO:TX:t=P:problem:kreska pseudotaktowa	!	!	!	!	!
.	.	1B	.	.	.	.	.
*	*	*Xlig	*	*	*	*	*
.	.	.	.	4g\	-i	.	.
!	!	!	!	!LO:TX:t=P:problem:kreska pseudotaktowa	!	!	!
.	.	.	.	4f#,<\	qui	.	.
=22-	=22-	=22-	=22-	=22-	=22-	=22-	=22-
!LO:TX:t=P:problem:kreska pseudotaktowa	!	!	!	!	!	!LO:TX:t=P:problem:kreska pseudotaktowa	!
1r	.	2.c\	De-	4e\	tol-	0r	.
.	.	.	.	4f#\	.	.	.
.	.	.	.	1g	.	.	.
.	.	4B\	.	.	.	.	.
!	!	!LO:TX:t=P:problem:kreska pseudotaktowa	!	!	!	!	!
2r	.	1A	.	.	.	.	.
!LO:TX:t=P:problem:kreska pseudotaktowa	!	!	!	!LO:TX:t=P:problem:kreska pseudotaktowa	!	!	!
2D\	Qui	.	.	2f#\	.	.	.
=23-	=23-	=23-	=23-	=23-	=23-	=23-	=23-
!LO:TX:t=P:problem:kreska pseudotaktowa	!	!	!	!	!	!	!
1G	tol-	2B,\	-i	2g,\	-lis	2r	.
!	!	!LO:TX:t=P:problem:kreska pseudotaktowa	!	!LO:TX:t=P:problem:kreska pseudotaktowa	!	!LO:TX:t=P:problem:kreska pseudotaktowa	!
.	.	2B\	qui	2g\	pec-	2g/	Qui
!	!	!	!	!LO:TX:t=P:problem:kreska pseudotaktowa	!	!	!
2F#,<\	-lis	2A/	tol-	[<1a	-ca-	2dd\	tol-
!LO:TX:t=P:problem:kreska pseudotaktowa	!	!LO:TX:t=P:problem:kreska pseudotaktowa	!	!	!	!	!
2D\	pec-	2F#/	.	.	.	4dd\	-lis
!	!	!	!	!	!	!LO:TX:t=P:problem:kreska pseudotaktowa	!
.	.	.	.	.	.	4cc\	pec-
=24-	=24-	=24-	=24-	=24-	=24-	=24-	=24-
1G	-ca-	2d,\	-lis	2a]	.	2b\	-ca-
!	!	!	!	!	!	!LO:TX:t=P:problem:kreska pseudotaktowa	!
.	.	4g\	pec-	1g	-ta	2b\	-ta
!	!	!LO:TX:t=P:problem:kreska pseudotaktowa	!	!	!	!	!
.	.	4f#\	.	.	.	.	.
2A\	.	2e\	-ca-	.	.	2cc#X\	mun-
!LO:TX:t=P:problem:kreska pseudotaktowa	!	!	!	!	!	!	!
2D\	-ta	(>4d\	-ta	2f#\	mun-	1dd\	.
!	!	!LO:TX:t=P:problem:kreska pseudotaktowa	!	!	!	!	!
.	.	4A/)	.	.	.	.	.
=25-	=25-	=25-	=25-	=25-	=25-	=25-	=25-
!	!	!	!	!LO:TX:t=P:problem:kreska pseudotaktowa	!	!	!
2A\	mun-	1A	mun-	1e	.	.	.
!LO:TX:t=P:problem:kreska pseudotaktowa	!	!	!	!	!	!LO:TX:t=P:problem:kreska pseudotaktowa	!
2AA/	.	.	.	.	.	2cc#X\	.
!	!	!LO:TX:t=P:problem:kreska pseudotaktowa	!	!	!	!	!
2D\	-di,	1A	-di	2f#\	-di	2dd,\	-di
!LO:TX:t=P:problem:kreska pseudotaktowa	!	!	!	!LO:TX:t=P:problem:kreska pseudotaktowa	!	!LO:TX:t=P:problem:kreska pseudotaktowa	!
2r	.	.	.	2r	.	[<2dd\	pec-
!	!	!LO:LB:g=original	!	!	!	!	!
=26-	=26-	=26-	=26-	=26-	=26-	=26-	=26-
0r	.	0r	.	2e\	qui	2dd]	.
!	!	!	!	!	!	!LO:TX:t=P:problem:kreska pseudotaktowa	!
.	.	.	.	2f#\	tol-	2ccn\	.
.	.	.	.	2g\	-lis	2b\	-ca-
!	!	!	!	!LO:TX:t=P:problem:kreska pseudotaktowa	!	!	!
.	.	.	.	2g\	pec-	4b,\	-ta
!	!	!	!	!LO:LB:g=original	!	!LO:TX:t=P:problem:kreska pseudotaktowa	!
.	.	.	.	.	.	4b\	pec-
=27-	=27-	=27-	=27-	=27-	=27-	=27-	=27-
!LO:TX:t=P:problem:kreska pseudotaktowa	!	!LO:TX:t=P:problem:kreska pseudotaktowa	!	!	!	!	!
1r	.	1r	.	4cc\	-ca-	(4ee\	-ca-
.	.	.	.	4b\	.	4dd\	.
.	.	.	.	4a\	.	4cc\	.
!	!	!	!	!	!	!LO:TX:t=P:problem:kreska pseudotaktowa	!
.	.	.	.	4g\	.	4b\)	.
1D	pec-	2d,<\	Qui	1f#	.	1a	.
.	.	2d\	tol-	.	.	.	.
=28-	=28-	=28-	=28-	=28-	=28-	=28-	=28-
!LO:TX:t=P:problem:kreska pseudotaktowa	!	!	!	!	!	!	!
1BB	.	2d\	-lis	2g,\	-ta-	2b,\	-ta
!	!	!LO:TX:t=P:problem:kreska pseudotaktowa	!	!LO:TX:t=P:problem:kreska pseudotaktowa	!	!LO:TX:t=P:problem:kreska pseudotaktowa	!
.	.	2d\	pec-	2g\	pec-	2g/	pec-
!LO:LB:g=original	!	!	!	!	!	!LO:LB:g=original	!
2C/	-ca-	2c\	-ca-	2e\	-ca-	2g/	-ca-
2GG/	-ta	2B\	-ta	2d\	-ta	1g\	-ta
=29-	=29-	=29-	=29-	=29-	=29-	=29-	=29-
1D	mun-	1A	mun-	1d	mun-	.	.
.	.	.	.	.	.	2f#X/	mun-
1GG;	-di.	1B;	-di.	1d;	-di.	1g;	-di
=30||	=30||	=30||	=30||	=30||	=30||	=30||	=30||
*M2/1	*	*M2/1	*	*M2/1	*	*M2/1	*
*met(C|)	*	*met(C|)	*	*met(C|)	*	*met(C|)	*
!	!	!	!	!LO:TX:t=P:problem:kreska pseudotaktowa	!	!	!
00r	.	00r	.	1r	.	(4g\	Do-
.	.	.	.	.	.	4a\)	.
.	.	.	.	.	.	(4b\	-na
!	!	!	!	!	!	!LO:TX:t=P:problem:kreska pseudotaktowa	!
.	.	.	.	.	.	4cc\)	.
.	.	.	.	(4d\	Do-	2dd\	no-
.	.	.	.	4e\)	.	.	.
.	.	.	.	(4f#\	-na	4dd,\	-bis
!	!	!	!	!LO:TX:t=P:problem:kreska pseudotaktowa	!	!LO:TX:t=P:problem:kreska pseudotaktowa	!
.	.	.	.	4g\)	.	4dd\	pa-
=31-	=31-	=31-	=31-	=31-	=31-	=31-	=31-
.	.	.	.	(4a\	no-	4ccn\	.
.	.	.	.	4g\)	.	4b\	.
.	.	.	.	(4a\	bis	(4cc\	-cem
!	!	!	!	!LO:TX:t=P:problem:kreska pseudotaktowa	!	!LO:TX:t=P:problem:kreska pseudotaktowa	!
.	.	.	.	4f#\)	.	4dd\)	.
.	.	.	.	4g\	pa-	2b\	do-
.	.	.	.	4a\	.	.	.
!	!	!	!	!	!	!LO:TX:t=P:problem:kreska pseudotaktowa	!
.	.	.	.	4g\	.	2b\	-na
.	.	.	.	4f#\	.	.	.
=32-	=32-	=32-	=32-	=32-	=32-	=32-	=32-
*	*	*	*	*	*	*	*ij
!LO:TX:t=P:problem:kreska pseudotaktowa	!	!LO:TX:t=P:problem:kreska pseudotaktowa	!	!	!	!	!
00r	.	00r	.	2e\	.	2ee\	do-
!	!	!	!	!LO:TX:t=P:problem:kreska pseudotaktowa	!	!	!
.	.	.	.	2e\	-cem	4ee\	-na
*	*	*	*	*	*	*	*Xij
!	!	!	!	!	!	!LO:TX:t=P:problem:kreska pseudotaktowa	!
.	.	.	.	.	.	4dd\	.
.	.	.	.	2a\	do-	2cc#X\	no-
!	!	!	!	!	!	!LO:TX:t=P:problem:kreska pseudotaktowa	!
.	.	.	.	4a\	-na	2cc#\	-bis
!	!	!	!	!LO:TX:t=P:problem:kreska pseudotaktowa	!	!	!
.	.	.	.	4g\	.	.	.
=33-	=33-	=33-	=33-	=33-	=33-	=33-	=33-
!	!	!	!	!	!	!	!
.	.	.	.	(4f#\	no-	1.dd	pa-
.	.	.	.	4e\)	.	.	.
.	.	.	.	(4f#\	-bis	.	.
!	!	!	!	!LO:TX:t=P:problem:kreska pseudotaktowa	!	!	!
.	.	.	.	4g\)	.	.	.
!	!	!	!	!LO:LB:g=original	!	!	!
.	.	.	.	1e	pa-	.	.
!	!	!	!	!	!	!LO:TX:t=P:problem:kreska pseudotaktowa	!
.	.	.	.	.	.	2cc#X\	.
=34-	=34-	=34-	=34-	=34-	=34-	=34-	=34-
!	!	!	!	!LO:TX:t=P:problem:kreska pseudotaktowa	!	!	!
(4D/	Do-	2d\	Do-	1f#	-cem	2dd,\	-cem
4E/)	.	.	.	.	.	.	.
!	!	!LO:TX:t=P:problem:kreska pseudotaktowa	!	!	!	!	!
(4D/	-na	2d\	-na	.	.	4a\	do-
!LO:TX:t=P:problem:kreska pseudotaktowa	!	!	!	!	!	!LO:TX:t=P:problem:kreska pseudotaktowa	!
4C/)	.	.	.	.	.	4a\	-na
!	!	!	!	!	!	!LO:LB:g=original	!
2BBn/	no-	2d\	no-	4g\	do-	4b\	no-
.	.	.	.	4a\	.	4ccny\	.
!LO:TX:t=P:problem:kreska pseudotaktowa	!	!LO:TX:t=P:problem:kreska pseudotaktowa	!	!	!	!	!
2BB/	-bis	2d\	-bis	4g\	-na	4b\	.
!	!	!	!	!	!	!LO:TX:t=P:problem:kreska pseudotaktowa	!
.	.	.	.	4f#\	.	4a\	.
=35-	=35-	=35-	=35-	=35-	=35-	=35-	=35-
*	*ij	*	*	*	*	*	*
(4C/	Do-	1e	pa-	2e\	no-	2g/	.
4D/)	.	.	.	.	.	.	.
!	!	!	!	!LO:TX:t=P:problem:kreska pseudotaktowa	!	!LO:TX:t=P:problem:kreska pseudotaktowa	!
(4C/	-na	.	.	2e\	-bis	2g/	-bis
4BB/)	.	.	.	.	.	.	.
!	!	!LO:TX:t=P:problem:kreska pseudotaktowa	!	!	!	!	!
2AA/	no-	1c	-cem	4f#\	pa-	4a\	pa-
.	.	.	.	4g\	.	4b\	.
!LO:TX:t=P:problem:kreska pseudotaktowa	!	!	!	!	!	!	!
2AA/	-bis	.	.	4f#\	.	4a\	.
!	!	!	!	!LO:TX:t=P:problem:kreska pseudotaktowa	!	!LO:TX:t=P:problem:kreska pseudotaktowa	!
.	.	.	.	4e\	.	4g\	.
*	*Xij	*	*	*	*	*	*
=36-	=36-	=36-	=36-	=36-	=36-	=36-	=36-
(4BB/	Do-	2r	.	2d#X\	.	2f#/	.
4C/)	.	.	.	.	.	.	.
!	!	!	!	!LO:TX:t=P:problem:kreska pseudotaktowa	!	!LO:TX:t=P:problem:kreska pseudotaktowa	!
(4BB/	-na	4B\	do-	2d#\	-cem	2f#/	-cem
!	!	!LO:TX:t=P:problem:kreska pseudotaktowa	!	!	!	!	!
4AA/)	.	4B\	-na	.	.	.	.
!	!	!LO:LB:g=original	!	!	!	!LO:TX:t=P:problem:kreska pseudotaktowa	!
2GG/	no-	2B\	no-	1.e	pa-	1g	pa-
!LO:TX:t=P:problem:kreska pseudotaktowa	!	!LO:TX:t=P:problem:kreska pseudotaktowa	!	!	!	!	!
2E\	-bis	2B\	-bis	.	.	.	.
=37-	=37-	=37-	=37-	=37-	=37-	=37-	=37-
!	!	!LO:TX:t=P:problem:kreska pseudotaktowa	!	!	!	!	!
1BB	pa-	1B	pa-	.	.	1f#	.
!	!	!	!	!LO:TX:t=P:problem:kreska pseudotaktowa	!	!	!
.	.	.	.	2d#X\	.	.	.
!	!	!	!	!LO:TX:t=P:problem:kreska pseudotaktowa	!	!LO:TX:t=P:problem:kreska pseudotaktowa	!
2E\	-cem	2B,\	-cem	1e	-cem.	1g#X	-cem
!LO:TX:t=P:problem:kreska pseudotaktowa	!	!	!	!	!	!	!
!LO:SIC:v:t=custos F	!	!LO:TX:t=P:problem:kreska pseudotaktowa	!	!	!	!	!
2r	.	[<2e\	do-	.	.	.	.
!LO:LB:g=original	!	!	!	!	!	!	!
=38-	=38-	=38-	=38-	=38-	=38-	=38-	=38-
2F#\	Do-	2e]	.	0r	.	2r	.
(4G#X\	-na	4d\	-na	.	.	1b	Do-
!LO:TX:t=P:problem:kreska pseudotaktowa	!	!LO:TX:t=P:problem:kreska pseudotaktowa	!	!	!	!	!
4E\)	.	4e\	.	.	.	.	.
1A	no-	4c\	no-	.	.	.	.
.	.	4c,\	-bis	.	.	.	.
*	*	*	*ij	*	*	*	*
.	.	1c\	do-	.	.	1a\	-na
=39-	=39-	=39-	=39-	=39-	=39-	=39-	=39-
!LO:TX:t=P:problem:kreska pseudotaktowa	!	!	!	!LO:TX:t=P:problem:kreska pseudotaktowa	!	!	!
1D	-bis	.	.	1r	.	.	.
.	.	4d\	-na	.	.	4b\	no-
!	!	!LO:TX:t=P:problem:kreska pseudotaktowa	!	!	!	!LO:TX:t=P:problem:kreska pseudotaktowa	!
.	.	4c\	.	.	.	4a\	-bis
1E	pa-	2B\	no-	2e\	do-	2g#X\	pa-
!	!	!LO:TX:t=P:problem:kreska pseudotaktowa	!	!LO:TX:t=P:problem:kreska pseudotaktowa	!	!LO:TX:t=P:problem:kreska pseudotaktowa	!
.	.	2B,\	-bis	2e\	-na	2g#,\	-cem
*	*	*	*Xij	*	*	*	*
=40-	=40-	=40-	=40-	=40-	=40-	=40-	=40-
!LO:TX:t=P:problem:kreska pseudotaktowa	!	!	!	!	!	!	!
1A,	-cem	2c\	Do-	2e\	no-	1.a	do-
.	.	2c\	-na	2e\	-bis	.	.
!	!	!	!	!LO:TX:t=P:problem:kreska pseudotaktowa	!	!	!
1D	pa-	1d	no-	1f-X	pa-	.	.
!	!	!	!	!LO:LB:g=original	!	!LO:TX:t=P:problem:kreska pseudotaktowa	!
.	.	.	.	.	.	2a\	-na
=41-	=41-	=41-	=41-	=41-	=41-	=41-	=41-
2Gny\	.	2B,\	-bis	2dny\	.	2gny\	no-
!	!	!	!	!	!	!LO:TX:t=P:problem:kreska pseudotaktowa	!
!LO:TX:t=P:problem:kreska pseudotaktowa	!	!	!	!LO:TX:t=P:problem:kreska pseudotaktowa	!	!LO:SIC:v:t=custos g	!
2C/	.	1c	pa-	2e\	.	2g\	-bis
!LO:TX:t=P:problem:kreska pseudotaktowa	!	!	!	!	!	!LO:TX:t=P:problem:kreska pseudotaktowa	!
!	!	!	!	!	!	!LO:LB:g=original	!
1G,	-cem	.	.	1d	.	1g	pa-
!	!	!LO:TX:t=P:problem:kreska pseudotaktowa	!	!	!	!	!
.	.	2B\	.	.	.	.	.
=42-	=42-	=42-	=42-	=42-	=42-	=42-	=42-
!	!	!	!	!LO:TX:t=P:problem:kreska pseudotaktowa	!	!LO:TX:t=P:problem:kreska pseudotaktowa	!
(4C/	Do-	2c,\	-cem	1e,	-cem.	1g,	-cem
4D/)	.	.	.	.	.	.	.
(4E/	-na	1c	do-	.	.	.	.
!LO:TX:t=P:problem:kreska pseudotaktowa	!	!	!	!	!	!	!
4Fn/)	.	.	.	.	.	.	.
2G\	no-	.	.	2r	.	(4g\	Do-
.	.	.	.	.	.	4a\)	.
!	!	!LO:TX:t=P:problem:kreska pseudotaktowa	!	!	!	!	!
!LO:TX:t=P:problem:kreska pseudotaktowa	!	!LO:SIC:v:t=custos A	!	!LO:TX:t=P:problem:kreska pseudotaktowa	!	!	!
2G\	-bis	2B\	.	[<2g\	Do-	(4b\	-na
!	!	!	!	!	!	!LO:TX:t=P:problem:kreska pseudotaktowa	!
.	.	.	.	.	.	4cc\)	.
=43-	=43-	=43-	=43-	=43-	=43-	=43-	=43-
(4D\	pa-	2A,<\	-na	2g]	.	(4dd\	no-
4E\	.	.	.	.	.	4a\)	.
!	!	!	!	!LO:TX:t=P:problem:kreska pseudotaktowa	!	!LO:TX:t=P:problem:kreska pseudotaktowa	!
4Fn\)	.	1d	no-	2fn\	-na	2a,\	-bis
4G\	.	.	.	.	.	.	.
1A	.	.	.	2e\	no-	[1a	Do-
!	!	!LO:TX:t=P:problem:kreska pseudotaktowa	!	!	!	!	!
.	.	2c#X\	.	2e\	-bis	.	.
=44-	=44-	=44-	=44-	=44-	=44-	=44-	=44-
!LO:TX:t=P:problem:kreska pseudotaktowa	!	!	!	!LO:TX:t=P:problem:kreska pseudotaktowa	!	!	!
1B-X,	-cem	2d\	.	1d	pa-	4a]	.
.	.	.	.	.	.	4a\	-na
!	!	!LO:TX:t=P:problem:kreska pseudotaktowa	!	!	!	!	!
.	.	2d\	-bis	.	.	4g\	no-
!	!	!	!	!	!	!LO:TX:t=P:problem:kreska pseudotaktowa	!
.	.	.	.	.	.	4g\	-bis
*	*	*	*	*	*	*	*ij
!LO:LB:g=original	!	!	!	!	!	!	!
2.A\	Do-	2.c#X\	do-	2e,\	-cem	2a\	Do-
*	*	*	*	*	*ij	*	*
!	!	!	!	!	!	!LO:TX:t=P:problem:kreska pseudotaktowa	!
.	.	.	.	4e\	do-	2a\	-na
!LO:TX:t=P:problem:kreska pseudotaktowa	!	!	!	!	!	!	!
4G\	-na	4c#\	-na	4e\	-na	.	.
=45-	=45-	=45-	=45-	=45-	=45-	=45-	=45-
(4Fn\	no-	2d\	no-	2fn\	no-	2a\	no-
4E\)	.	.	.	.	.	.	.
!	!	!LO:TX:t=P:problem:kreska pseudotaktowa	!	!LO:TX:t=P:problem:kreska pseudotaktowa	!	!LO:TX:t=P:problem:kreska pseudotaktowa	!
(4F\	-bis	[<2d\	-bis	2f\	-bis	2a\	-bis
*	*	*	*	*	*	*	*Xij
!LO:TX:t=P:problem:kreska pseudotaktowa	!	!	!	!	!	!	!
4D\)	.	.	.	.	.	.	.
2A\	pa-	2d]	.	2.e\	pa-	2.a\	Do-
!	!	!LO:TX:t=P:problem:kreska pseudotaktowa	!	!	!	!	!
2AA/	.	2c#X\	pa-	.	.	.	.
!	!	!	!	!LO:TX:t=P:problem:kreska pseudotaktowa	!	!LO:TX:t=P:problem:kreska pseudotaktowa	!
.	.	.	.	4e,<\	-cem	4a\	-na
*	*	*	*	*	*Xij	*	*
=46-	=46-	=46-	=46-	=46-	=46-	=46-	=46-
2D,\	-cem	2d,\	-cem	2fn\	do-	2a\	no-
!	!	!	!	!LO:TX:t=P:problem:kreska pseudotaktowa	!	!LO:TX:t=P:problem:kreska pseudotaktowa	!
*	*ij	*	*	*	*	*	*
2D\	Do-	2d\	Do-	2f#X\	-na	2a\	-bis
!LO:TX:t=P:problem:kreska pseudotaktowa	!	!LO:TX:t=P:problem:kreska pseudotaktowa	!	!LO:TX:t=P:problem:kreska pseudotaktowa	!	!LO:TX:t=P:problem:kreska pseudotaktowa	!
1BB	-na	1d	-na	1g	no-	1b	pa-
!	!	!	!	!LO:LB:g=original	!	!	!
=47-	=47-	=47-	=47-	=47-	=47-	=47-	=47-
2C/	no-	2e\	no-	4e\	-bis	2g,/	-cem
.	.	.	.	4f#\	.	.	.
!	!	!	!	!	!	!LO:TX:t=P:problem:kreska pseudotaktowa	!
2BB/	-bis	2d\	-bis	1g	pa-	2g/	do-
1AA	pa-	2e\	pa-	.	.	2.cc\	.
!	!	!LO:TX:t=P:problem:kreska pseudotaktowa	!	!LO:TX:t=P:problem:kreska pseudotaktowa	!	!	!
.	.	2A/	.	2f#\	.	.	.
!	!	!	!	!	!	!LO:TX:t=P:problem:kreska pseudotaktowa	!
.	.	.	.	.	.	4cc\	-na
!	!	!	!	!	!	!LO:LB:g=original	!
=48-	=48-	=48-	=48-	=48-	=48-	=48-	=48-
2GG,/	-cem	2d,\	-cem	2g,\	-cem	4b\	do-
*	*Xij	*	*	*	*	*	*
.	.	.	.	.	.	4b\	-na
!	!	!	!	!LO:TX:t=P:problem:kreska pseudotaktowa	!	!	!
1G\	Do-	2d\	Do-	2g\	pa-	4b\	no-
!	!	!	!	!	!	!LO:TX:t=P:problem:kreska pseudotaktowa	!
.	.	.	.	.	.	4b\	-bis
!	!	!	!	!	!	!LO:TX:t=P:problem:kreska pseudotaktowa	!
.	.	2c#X\	-na	(2e\	.	1a	pa-
!	!	!LO:TX:t=P:problem:kreska pseudotaktowa	!	!LO:TX:t=P:problem:kreska pseudotaktowa	!	!	!
2F#X\	-na	2d#X\	.	2f#\)	.	.	.
!	!	!LO:LB:g=original	!	!	!	!	!
=49-	=49-	=49-	=49-	=49-	=49-	=49-	=49-
2E\	no-	2e\	no-	2g,\	-cem	4g\	.
.	.	.	.	.	.	4a\	.
!LO:TX:t=P:problem:kreska pseudotaktowa	!	!	!	!	!	!	!
2D\	-bis	4f#\	-bis	2f#\	do-	1b	.
!	!	!LO:TX:t=P:problem:kreska pseudotaktowa	!	!	!	!	!
.	.	4B\	.	.	.	.	.
1Cn	pa-	1e	pa-	(2g\	-na	.	.
!	!	!	!	!LO:TX:t=P:problem:kreska pseudotaktowa	!	!LO:TX:t=P:problem:kreska pseudotaktowa	!
.	.	.	.	2e\)	.	2a\	.
=50-	=50-	=50-	=50-	=50-	=50-	=50-	=50-
!	!	!LO:TX:t=P:problem:kreska pseudotaktowa	!	!	!	!LO:TX:t=P:problem:kreska pseudotaktowa	!
2BB,/	-cem	1d#X,<	-cem	2f#\	no-	1b,	-cem
4B\	do-	.	.	2f#\	-bis	.	.
!LO:TX:t=P:problem:kreska pseudotaktowa	!	!	!	!	!	!	!
4A\	-na	.	.	.	.	.	.
!	!	!	!	!	!	!LO:TX:t=P:problem:kreska pseudotaktowa	!
(4Gn\	no-	2r	.	1g	pa-	1r	.
4F#\)	.	.	.	.	.	.	.
(4G\	-bis	4e\	do-	.	.	.	.
!	!	!LO:TX:t=P:problem:kreska pseudotaktowa	!	!	!	!	!
4E\)	.	4dny\	-na	.	.	.	.
=51-	=51-	=51-	=51-	=51-	=51-	=51-	=51-
!	!	!	!	!LO:TX:t=P:problem:kreska pseudotaktowa	!	!	!
2A\	pa-	(4c#X\	no-	1e,	-cem	1.a	Do-
.	.	4B\)	.	.	.	.	.
!LO:TX:t=P:problem:kreska pseudotaktowa	!	!	!	!	!	!	!
2A\	-cem	(4c#\	-bis	.	.	.	.
!	!	!LO:TX:t=P:problem:kreska pseudotaktowa	!	!	!	!	!
.	.	4A\)	.	.	.	.	.
(4F#\	do-	2d\	pa-	1f#X	do-	.	.
4E\)	.	.	.	.	.	.	.
!	!	!LO:TX:t=P:problem:kreska pseudotaktowa	!	!	!	!LO:TX:t=P:problem:kreska pseudotaktowa	!
4F#\	-na	2D/	-cem	.	.	2a\	-na
!LO:TX:t=P:problem:kreska pseudotaktowa	!	!	!	!	!	!	!
4D\	.	.	.	.	.	.	.
=52-	=52-	=52-	=52-	=52-	=52-	=52-	=52-
1G	no-	2r	.	1d	-na	1b	no-
.	.	1d	do-	.	.	.	.
!LO:TX:t=P:problem:kreska pseudotaktowa	!	!	!	!LO:TX:t=P:problem:kreska pseudotaktowa	!	!LO:TX:t=P:problem:kreska pseudotaktowa	!
1C	-bis	.	.	1e	no-	1g	-bis
.	.	1cn\	-na	.	.	.	.
=53-	=53-	=53-	=53-	=53-	=53-	=53-	=53-
0D	pa-	.	.	2A/	-bis	2f#/	pa-
.	.	4B\	no-	2d\	.	1g	.
!	!	!LO:TX:t=P:problem:kreska pseudotaktowa	!	!	!	!	!
.	.	4B\	-bis	.	.	.	.
.	.	1A	pa-	1d	pa-	.	.
.	.	.	.	.	.	2f#/	.
=54-	=54-	=54-	=54-	=54-	=54-	=54-	=54-
0GG;	-cem	0B;	-cem.	0d;	-cem.	0g;	-cem.
==	==	==	==	==	==	==	==
*-	*-	*-	*-	*-	*-	*-	*-
!!!system-decoration: [(s1,s2,s3,s4)]
!!!RDF**kern: > = above
!!!RDF**kern: < = below
!!!EED: Andrzej Borzym
!!!EST: 2021-07-26
!!!ENC:Berenika Jozajtis
!!!END:2021-07-03
